X: 29310
T: New Way To Miltown, The
R: jig
M: 6/8
K: Dmajor
|:F2D F2A|AGF E2G|F2D F2A|GED D2E|
F2D F2A|AGF E2A|ded dAB|1 AFD D2E:|2 AFD D2||
A|:ded d2B|AGF EFA|ded dAB|AFD D2A|
ded d2B|ABc d2B|AGF dcd|AFDD2:|

